X: 384
T: The beauties of Ireland
C: anon.
O: Ireland
B: Francis O'Neill: "The Dance Music of Ireland" (1907) no. 384
R: Single jig
Z: Transcribed by Frank Nordberg - http://www.musicaviva.com
F: http://www.musicaviva.com/abc/tunes/ireland/oneill-1001/oneill-1001-038
4.abc
M: 12/8
L: 1/8
K: D
F2D DFD DFD DFD|E2A, A,CA, A,CA, A,CA,|F2D DFD DFD DFD|Bcd edc [1d2B A2G:
|[2d2 z d2 zH||
A|f2d def gag fgf|ecA AcA ecA AcA|f2d def gbg faf|ecA ABc [1d2 z d2 z:|[2
 d2B A2G|]
W:
W:
W: From Musica Viva - http://www.musicaviva.com
W: the Internet center for free sheet music downloads.


